X: 49
T: Title Unknown Strathspey
T: Strathspey, A Mixolydian
L: 1/16
M: C
K: A Mixolydian
|: B| A3F E3C E4 A3c| df3 e3c B3A FB3| A3F E3C E4 Ac3| df3 e3c A4 A3:| 
g| fe3 af3 e3c A3c| df3 e3c BA3 F3g| fe3 a3f e3c A3c| df3 e3c A4 A3g| 
fe3 af3 e3c A3c| df3 e3c B3A FB3| A3F E3C E4 A3c| d3f e3c A4 A3|| 
D: Fr. Angus Morris, Home recording
